src/svgs/email.svg

<?xml version="1.0" encoding="utf-8"?>
<svg xmlns="http://www.w3.org/2000/svg" viewBox="0 0 128 128">
  <g>
    <path id="path1" transform="rotate(0,64,64) translate(8.65392543200439,0) scale(1.17777182788087,1.17777182788087)"  d="M48,44.6485443115234L45.087890625,45.0294036865234 42.3515625,46.1719818115234 39.744140625,48.1583099365234 37.21875,51.0704193115234 34.98046875,54.8087005615234 33.234375,59.2735443115234 32.109375,63.9024505615234 31.734375,68.1329193115234 31.9248046875,71.1651458740234 32.49609375,73.8399505615234 33.4482421875,76.1573333740234 34.78125,78.1172943115234 36.3603515625,79.6758880615234 38.05078125,80.7891693115234 39.8525390625,81.4571380615234 41.765625,81.6797943115234 44.4609375,81.2872161865234 47.296875,80.1094818115234 50.1386680603027,78.1583099365234 52.8515625,75.4454193115234 55.2597618103027,71.9356536865234 57.1875,67.5938568115234 58.4531211853027,62.8301849365234 58.875,58.0547943115234 58.6772422790527,55.0460052490234 58.0839805603027,52.3946380615234 57.0952110290527,50.1006927490234 55.7109375,48.1641693115234 54.0424766540527,46.6260833740234 52.2011680603027,45.5274505615234 50.1870079040527,44.8682708740234 48,44.6485443115234z M51.65625,18.4922943115234L57.32080078125,18.7896575927734 62.689453125,19.6817474365234 67.76220703125,21.1685638427734 72.5390625,23.2501068115234 76.92333984375,25.9205188751221 80.818359375,29.1739387512207 84.22412109375,33.0103645324707 87.140625,37.4297943115234 89.1298828125,41.5723724365234 90.55078125,45.8907318115234 91.4033203125,50.3848724365234 91.6875,55.0547943115234 91.08984375,61.6612396240234 89.296875,67.8868255615234 86.30859375,73.7315521240234 82.125,79.1954193115234 77.759765625,83.3379974365234 73.1953125,86.2969818115234 68.431640625,88.0723724365234 63.46875,88.6641693115234 60.5449180603027,88.4180755615234 58.2421875,87.6797943115234 56.5136680603027,86.4844818115234 55.3125,84.8672943115234 54.7851524353027,83.2735443115234 54.421875,80.8360443115234 51.1933555603027,84.0059661865234 47.6015625,86.4844818115234 43.822265625,88.0840911865234 40.03125,88.6172943115234 35.91796875,88.0079193115234 31.921875,86.1797943115234 28.3535137176514,83.0860443115234 25.5234375,78.6797943115234 23.677734375,73.3712005615234 23.0625,67.5704193115234 23.30126953125,63.8423919677734 24.017578125,60.1114349365234 25.21142578125,56.3775482177734 26.8828125,52.6407318115234 28.90869140625,49.1353607177734 31.166015625,46.0958099365234 33.65478515625,43.5220794677734 36.375,41.4141693115234 39.1904296875,39.7735481262207 41.96484375,38.6016731262207 44.6982421875,37.8985481262207 47.390625,37.6641693115234 51.3749961853027,38.1973762512207 55.171875,39.7969818115234 58.6171836853027,42.4864349365234 61.546875,46.2891693115234 63.140625,39.0235443115234 71.53125,39.0235443115234 64.78125,70.4766693115234 64.166015625,73.3917083740234 63.7265586853027,75.5743255615234 63.4628868103027,77.0245208740234 63.375,77.7422943115234 63.6152305603027,78.9200286865234 64.3359375,79.9219818115234 65.396484375,80.6075286865234 66.65625,80.8360443115234 69.52734375,80.1212005615234 73.171875,77.9766693115234 77.958984375,73.5879974365234 81.6328125,67.9219818115234 82.99658203125,64.7447357177734 83.970703125,61.5176849365234 84.55517578125,58.2408294677734 84.75,54.9141693115234 84.49951171875,51.0645599365234 83.748046875,47.3438568115234 82.49560546875,43.7520599365234 80.7421875,40.2891693115234 78.4921875,37.0606575012207 75.75,34.1719856262207 72.515625,31.6231555938721 68.7890625,29.4141693115234 64.71240234375,27.6299915313721 60.4277305603027,26.3555793762207 55.9350547790527,25.5909290313721 51.234375,25.3360443115234 45.86865234375,25.6568470001221 40.740234375,26.6192512512207 35.84912109375,28.2232532501221 31.1953125,30.4688568115234 26.9150390625,33.3135871887207 23.14453125,36.7149543762207 19.8837890625,40.6729621887207 17.1328125,45.1876068115234 14.9487295150757,50.0670013427734 13.3886709213257,55.1192474365234 12.4526357650757,60.3443450927734 12.140625,65.7422943115234 12.4526357650757,71.2852630615234 13.3886709213257,76.4297943115234 14.9487295150757,81.1758880615234 17.1328125,85.5235443115234 19.9072265625,89.4009857177734 23.23828125,92.7364349365234 27.1259765625,95.5298919677734 31.5703125,97.7813568115234 36.42041015625,99.5142669677734 41.525390625,100.752059936523 46.88525390625,101.494735717773 52.5,101.742294311523 58.3916015625,101.484481811523 63.78515625,100.711044311523 68.6806640625,99.4219818115234 73.078125,97.6172943115234 76.9658203125,95.4434661865234 80.33203125,93.0469818115234 83.1767578125,90.4278411865234 85.5,87.5860443115234 93.984375,87.5860443115234 92.5751953125,90.0587005615234 90.73828125,92.5547943115234 88.4736328125,95.0743255615234 85.78125,97.6172943115234 79.41796875,102.193466186523 71.953125,105.703231811523 67.740234375,107.005477905273 63.1171875,107.935653686523 58.083984375,108.493759155273 52.640625,108.679794311523 42.638671875,108.011825561523 33.4453125,106.007919311523 25.3066387176514,102.662216186523 18.46875,97.9688568115234 15.5654287338257,95.1841888427734 13.0429677963257,92.1973724365234 10.9013662338257,89.0084075927734 9.140625,85.6172943115234 7.41796875,81.0997161865234 6.1875,76.4063568115234 5.44921875,71.5372161865234 5.203125,66.4922943115234 5.49609375,60.8409271240234 6.375,55.3243255615234 7.83984375,49.9424896240234 9.890625,44.6954193115234 13.05029296875,38.7159309387207 16.810546875,33.4805793762207 21.17138671875,28.9893665313721 26.1328125,25.2422943115234 31.67431640625,22.2891693115234 37.775390625,20.1797943115234 44.43603515625,18.9141693115234 51.65625,18.4922943115234z" />
  </g>
</svg>

<?xml version="1.0" encoding="UTF-8" standalone="no"?>
<svg
   xmlns:dc="http://purl.org/dc/elements/1.1/"
   xmlns:cc="http://creativecommons.org/ns#"
   xmlns:rdf="http://www.w3.org/1999/02/22-rdf-syntax-ns#"
   xmlns:svg="http://www.w3.org/2000/svg"
   xmlns="http://www.w3.org/2000/svg"
   xmlns:sodipodi="http://sodipodi.sourceforge.net/DTD/sodipodi-0.dtd"
   xmlns:inkscape="http://www.inkscape.org/namespaces/inkscape"
   viewBox="0 0 104.56406 106.2203"
   id="svg2"
   version="1.1"
   inkscape:version="0.91 r13725"
   sodipodi:docname="email.svg"
   width="104.56406"
   height="106.2203">
  <metadata
     id="metadata11">
    <rdf:RDF>
      <cc:Work
         rdf:about="">
        <dc:format>image/svg+xml</dc:format>
        <dc:type
           rdf:resource="http://purl.org/dc/dcmitype/StillImage" />
        <dc:title></dc:title>
      </cc:Work>
    </rdf:RDF>
  </metadata>
  <defs
     id="defs9" />
  <sodipodi:namedview
     pagecolor="#ffffff"
     bordercolor="#666666"
     borderopacity="1"
     objecttolerance="10"
     gridtolerance="10"
     guidetolerance="10"
     inkscape:pageopacity="0"
     inkscape:pageshadow="2"
     inkscape:window-width="1920"
     inkscape:window-height="1137"
     id="namedview7"
     showgrid="false"
     fit-margin-top="0"
     fit-margin-left="0"
     fit-margin-right="0"
     fit-margin-bottom="0"
     inkscape:zoom="1.84375"
     inkscape:cx="49.217981"
     inkscape:cy="64"
     inkscape:window-x="-8"
     inkscape:window-y="-8"
     inkscape:window-maximized="1"
     inkscape:current-layer="svg2" />
  <g
     id="g4"
     transform="translate(-14.782019,-21.779703)"
     style="stroke:none">
    <path
       id="path1"
       class="icon"
       transform="matrix(1.1777718,0,0,1.1777718,8.6539254,0)"
       d="m 48,44.648544 -2.912109,0.38086 -2.736329,1.142578 -2.607421,1.986328 -2.525391,2.912109 -2.238281,3.738282 -1.746094,4.464843 -1.125,4.628907 -0.375,4.230468 0.19043,3.032227 0.571289,2.674805 0.952148,2.317382 1.333008,1.959961 1.579102,1.558594 1.690429,1.113281 1.801758,0.667969 1.913086,0.222656 2.695312,-0.392578 2.835938,-1.177734 2.841793,-1.951172 2.712894,-2.712891 2.4082,-3.509765 1.927738,-4.341797 1.265621,-4.763672 0.421879,-4.775391 -0.197758,-3.008789 -0.593261,-2.651367 -0.98877,-2.293945 -1.384274,-1.936524 -1.66846,-1.538086 -1.841309,-1.098632 -2.01416,-0.65918 L 48,44.648544 Z m 3.65625,-26.15625 5.664551,0.297364 5.368652,0.892089 5.072754,1.486817 4.776855,2.081543 4.384278,2.670412 3.895019,3.25342 3.405762,3.836426 2.916504,4.419429 1.989258,4.142578 1.420898,4.31836 0.852539,4.49414 0.28418,4.669922 -0.597656,6.606446 -1.792969,6.225586 -2.988281,5.844726 -4.183594,5.463867 -4.365234,4.142578 -4.564454,2.958985 -4.763671,1.77539 -4.962891,0.591797 -2.923832,-0.246093 -2.302731,-0.738282 -1.728519,-1.195312 -1.201168,-1.617188 -0.527348,-1.59375 -0.363277,-2.4375 -3.228519,3.169922 -3.591794,2.478516 -3.779296,1.599609 -3.791016,0.533203 -4.113281,-0.609375 -3.996094,-1.828125 -3.568361,-3.09375 -2.830077,-4.40625 -1.845703,-5.308593 -0.615234,-5.800782 0.23877,-3.728027 0.716308,-3.730957 1.193848,-3.733887 1.671386,-3.736816 2.025879,-3.505371 2.257325,-3.039551 2.488769,-2.573731 2.720215,-2.10791 2.81543,-1.640621 2.774414,-1.171875 2.733398,-0.703125 2.692383,-0.234379 3.984371,0.533207 3.796879,1.599606 3.445309,2.689453 2.929691,3.802734 1.59375,-7.265625 8.390625,0 -6.75,31.453125 -0.615234,2.915039 -0.439457,2.182618 -0.263672,1.450195 -0.08789,0.717773 0.240231,1.177735 0.720706,1.001953 1.060547,0.685547 1.259766,0.228515 2.871094,-0.714843 3.644531,-2.144532 4.787109,-4.388672 3.673828,-5.666015 1.36377,-3.177246 0.974121,-3.227051 0.584473,-3.276856 0.194824,-3.32666 -0.250488,-3.849609 -0.751465,-3.720703 -1.252442,-3.591797 -1.753418,-3.462891 -2.25,-3.228511 -2.742187,-2.888672 -3.234375,-2.54883 -3.726563,-2.208987 -4.07666,-1.784177 -4.284671,-1.274413 -4.492676,-0.76465 -4.70068,-0.254885 -5.365723,0.320803 -5.128418,0.962404 -4.891113,1.604002 -4.653809,2.245604 -4.280273,2.84473 -3.770508,3.401367 -3.260742,3.958008 -2.750977,4.514645 -2.184082,4.879394 -1.560059,5.052246 -0.936035,5.225098 -0.312011,5.397949 0.312011,5.542969 0.936035,5.144531 1.560059,4.746094 2.184082,4.347656 2.774415,3.877442 3.331054,3.335449 3.887696,2.793457 4.444335,2.251465 4.850098,1.73291 5.104981,1.237793 5.359863,0.74268 5.614746,0.24755 5.891602,-0.25781 5.393554,-0.77344 4.895508,-1.289058 4.397461,-1.804688 3.887695,-2.173828 3.366211,-2.396484 2.844727,-2.619141 2.323242,-2.841797 8.484375,0 -1.40918,2.472657 -1.836914,2.496093 -2.264648,2.519532 -2.692383,2.542968 -6.363281,4.576176 -7.464844,3.50976 -4.212891,1.30225 -4.623047,0.93017 -5.033203,0.55811 -5.443359,0.18603 -10.001953,-0.66796 -9.19336,-2.00391 -8.138673,-3.3457 L 18.46875,97.968857 15.565429,95.184189 13.042968,92.197372 10.901366,89.008408 9.140625,85.617294 7.4179687,81.099716 6.1875,76.406357 5.4492187,71.537216 5.203125,66.492294 5.4960937,60.840927 6.375,55.324326 7.8398437,49.94249 9.890625,44.695419 l 3.159668,-5.979488 3.760254,-5.235352 4.36084,-4.491212 4.961425,-3.747073 5.541504,-2.953125 6.101075,-2.109375 6.660644,-1.265625 7.220215,-0.421875 z"
       inkscape:connector-curvature="0"
       style="fill:currentColor;stroke:none" />
  </g>
</svg>
